X:1
T:Mariners, 87.87
T:Mariners, 87.87
T:Sicilian Tune
T:Public Domain Courtesy of the Cyber Hymnal™
C:Sicilian Tune
Z:Public Domain
Z:Courtesy of the Cyber Hymnal™
%%score ( 1 2 ) ( 3 4 )
L:1/8
Q:1/4=106
M:4/4
K:Eb
V:1 treble 
V:2 treble 
V:3 bass 
V:4 bass 
V:1
 [EB]2 [Ec]2 (BA) (GA) | [EB]2 [Ec]2 (BA) ([EG][FA]) | [FB]2 [DB]2 [Fc]2 ([Fd][Ge]) | %3
 [Fd]2 [Ec]2 [DB]4 | ([DF][EG]) ([DF][EG]) [FA]2 [DA]2 | ([EG][FA]) [EG][FA] [GB]2 [EB]2 | %6
 (ed) (cB) (ec) ([EB][FA]) | [EG]2 [DF]2 E4 |] %8
V:2
 x4 E2 E2 | x4 D2 x2 | x8 | x8 | x8 | x8 | E2 E2 E2 x2 | x4 E4 |] %8
V:3
 [E,G,]2 [A,,A,]2 (G,F,) (E,F,) | [E,G,]2 [A,,A,]2 [B,,F,]2 E,2 | [D,B,]2 [G,B,]2 [F,=A,]2 B,2 | %3
 [F,B,]2 [F,=A,]2 [B,,B,]4 | [B,,B,]2 [B,,B,]2 [D,B,]2 [B,,B,]2 | [E,B,]2 [E,B,]2 (EB,) [E,G,]2 | %6
 (G,B,) (A,G,) A,2 ([G,,B,][A,,C]) | [B,,B,]2 [B,,A,]2 [E,G,]4 |] %8
V:4
 x4 E,2 E,2 | x6 E,2 | x6 (B,E,) | x8 | x8 | x4 E,2 x2 | E,2 E,2 (C,A,,) x2 | x8 |] %8

